X:8
T:Beautiful Charmer THO4.008, The
M:6/8
L:1/8
Z:vmp. Peter Dunk 2010/11.from a transcription by Fynn Titford-Mock 2007
B:Thompson's Compleat Collection of 200 Favourite Country Dances Volume IV.
Q:3/8=100
K:C
efg gag|agf edc|def edc|dGG G2 G|efg gag|agf edc|def edc|dcB c3:|
|:efg efg|agf edc|def edc|gfe dcB|cGc ece|agf edc|def edc|dcB c3:|
